packages/core/src/svgs/tokens/mono/MUSE.svg

<svg width="24" height="24" viewBox="0 0 24 24" fill="none" xmlns="http://www.w3.org/2000/svg">
<path d="M5.83333 2.66658L13 9.70661C15.4066 7.29326 17.8333 5.17325 20.1534 2.67992C20.2985 2.5213 20.4891 2.41125 20.6989 2.36474C20.9089 2.31821 21.1281 2.33748 21.3268 2.41991C21.7334 2.59325 22 2.97325 22 3.42659V7.39992C19.16 10.3533 16.4467 13.1066 13.6533 16.06C13.5698 16.1496 13.4685 16.221 13.3562 16.27C13.2438 16.3188 13.1226 16.344 13 16.344C12.8774 16.344 12.7563 16.3188 12.6438 16.27C12.5313 16.221 12.4302 16.1496 12.3467 16.06L8.66667 12.0399V20.7532C8.66667 21.2599 8.16666 21.6667 7.66666 21.6667H5C4.5 21.6667 4 21.2467 4 20.7333V19.6665H2.90666C2.40665 19.6665 2 19.2465 2 18.7332V15.9332C2 15.4199 2.40665 14.9999 2.90666 14.9999H4V12.3333H2.90666C2.40665 12.3333 2 11.9133 2 11.4V8.59992C2 8.08659 2.40665 7.66659 2.90666 7.66659H4V3.42659C4 2.97325 4.25333 2.57992 4.67333 2.42659C4.80666 2.35991 4.94666 2.33325 5.08666 2.33325C5.36666 2.33325 5.63333 2.45325 5.83333 2.66658ZM17.6533 14.4465L20.3066 11.9399C20.4486 11.8041 20.6278 11.7139 20.8215 11.6806C21.015 11.6473 21.2143 11.6727 21.3933 11.7533C21.7734 11.9066 22 12.2599 22 12.6665V20.6666C22 21.2132 21.5534 21.6667 20.9934 21.6667H18.3401C18.2082 21.6674 18.0774 21.6422 17.9552 21.5925C17.8331 21.5425 17.7222 21.469 17.6286 21.3761C17.5351 21.2831 17.4607 21.1726 17.4102 21.0508C17.3595 20.929 17.3333 20.7985 17.3333 20.6666V15.1733C17.3467 14.8866 17.4467 14.6399 17.6533 14.4465Z" fill="white"/>
</svg>

<svg xmlns="http://www.w3.org/2000/svg" width="24" height="24" fill="none" viewBox="0 0 24 24">
    <path fill="#fff" d="M5.833 2.667 13 9.707c2.407-2.414 4.833-4.534 7.153-7.027a1.05 1.05 0 0 1 1.174-.26c.406.173.673.553.673 1.007V7.4c-2.84 2.953-5.553 5.707-8.347 8.66a.896.896 0 0 1-1.306 0l-3.68-4.02v8.713c0 .507-.5.914-1 .914H5c-.5 0-1-.42-1-.934v-1.067H2.907c-.5 0-.907-.42-.907-.933v-2.8c0-.513.407-.933.907-.933H4v-2.667H2.907c-.5 0-.907-.42-.907-.933V8.6c0-.513.407-.933.907-.933H4v-4.24c0-.454.253-.847.673-1a.9.9 0 0 1 .414-.094c.28 0 .546.12.746.334m11.82 11.78 2.654-2.507a.99.99 0 0 1 1.086-.187c.38.154.607.507.607.913v8c0 .547-.447 1-1.007 1H18.34a1 1 0 0 1-.711-.29 1 1 0 0 1-.296-.71v-5.493a1.02 1.02 0 0 1 .32-.726"/>
</svg>
